X: 1
T: Aly's Waltz
O: American old-time waltz
R: waltz
Z: 2020 John Chambers <jc:trillian.mit.edu>
S: https://www.youtube.com/watch?v=OnaieWum8g8 2020-5-1
S: fidddlecastro@gmail.com
M: 3/4
L: 1/8
K: F
FG |\
"F"A2 d3 c/A/ | "C"G3 d cA | "Dm"F3 G FE |""Bb" D E4 F |\
"F"A, F3 A2 | "Bb"B4 AG | "F"F C3 FF | "C7"G4 FG |
"F"A2 d3 c/A/ | "C"G3 d cA | "Dm"F3 G FE | "Bb"D E4 F |\
"F"A, F3 A2 | "Gm"B3 A GF | "Bb"D F4 E | "F"F4 :|
|: F2 |\
"Bb"d3 e2 f | "F"c4 ef | "Gm"B3 A GF | "F"F6 |\
"A7"A3 =B ^cF | "D"d4 cB | "F"A<c F2 EF | "C7"G4 FG |
"F"A2 d3 c/A/ | "C"G3 d cA | "Dm"F3 G FE | "Bb"D E4 F |\
A, F3 A2 | "Gm"B3 A GF | "Bb"D F4 E | "F"F4 :|
